Delta/apps/scalable/accessories-screenshot.svg

<svg xmlns="http://www.w3.org/2000/svg" width="192" height="192" viewBox="0 0 192 192">
  <g fill="none" fill-rule="evenodd">
    <rect width="152" height="152" x="20" y="20" fill="#FF837D" rx="10"/>
    <path fill="#FFF" fill-rule="nonzero" d="M43,111 L53,111 L53,139.998829 C53,140.513218 53.3856946,140.935568 53.8842426,140.993279 L54.0011713,141 L82,141 L82,151 L54.0011713,151 C48.0214172,151 43.1566383,146.231209 43.0037075,140.287337 L43,139.998829 L43,111 Z M151,111 L151,139.998829 C151,146.07503 146.076136,151 139.998829,151 L139.998829,151 L111,151 L111,141 L139.998829,141 C140.513218,141 140.935568,140.614305 140.993279,140.115757 L141,139.998829 L141,111 L151,111 Z M139.998829,43 C146.07503,43 151,47.9238639 151,54.0011713 L151,54.0011713 L151,82 L141,82 L141,54.0011713 C141,53.4867824 140.614305,53.0644323 140.115757,53.006721 L139.998829,53 L111,53 L111,43 Z M82,43 L82,53 L54.0011713,53 C53.4867824,53 53.0644323,53.3856946 53.006721,53.8842426 L53,54.0011713 L53,82 L43,82 L43,54.0011713 C43,48.0214172 47.7687913,43.1566383 53.7126626,43.0037075 L54.0011713,43 L82,43 Z"/>
  </g>
</svg>

<svg width="192" height="192" version="1.1" viewBox="0 0 192 192" xmlns="http://www.w3.org/2000/svg">
 <rect x="20" y="20" width="152" height="152" rx="10" style="fill-rule:evenodd;fill:#ff837d"/>
 <path d="m43 111h10v28.999c0 0.51439 0.3857 0.93674 0.88424 0.99445l0.11693 0.00672h27.999v10h-27.999c-5.9798 0-10.845-4.7688-10.997-10.713l-0.003707-0.28851zm108 0v28.999c0 6.0762-4.9239 11.001-11.001 11.001h-28.999v-10h28.999c0.51439 0 0.93674-0.3857 0.99445-0.88424l0.00672-0.11693v-28.999zm-11.001-68c6.0762 0 11.001 4.9239 11.001 11.001v27.999h-10v-27.999c0-0.51439-0.3857-0.93674-0.88424-0.99445l-0.11693-0.006721h-28.999v-10zm-57.999 0v10h-27.999c-0.51439 0-0.93674 0.3857-0.99445 0.88424l-0.006721 0.11693v27.999h-10v-27.999c0-5.9798 4.7688-10.845 10.713-10.997l0.28851-0.003707z" style="fill:#fff"/>
</svg>
